yakuake/skins/materia-dark/tabs/plus_over.svg

<svg xmlns="http://www.w3.org/2000/svg" width="30" height="12" version="1.1">
 <rect style="fill:#272727" width="30" height="12" x="0" y="0"/>
 <path style="fill:#dfdfdf" d="m 23,3 h 2 v 2 h 2 V 7 H 25 V 9 H 23 V 7 H 21 V 5 h 2 z"/>
 <path style="opacity:0.08;fill:#ffffff" d="M 10.400586,0 C 9.0709851,0 8.0001955,1.0707906 8.0001955,2.4003906 V 9.5996094 C 8.0001955,10.929209 9.0709851,12 10.400586,12 h 5.599609 1.599609 2.800587 0.798828 6.40039 C 28.929209,12 30,10.929209 30,9.5996094 V 2.4003906 C 30,1.0707906 28.929209,0 27.599609,0 h -6.40039 -0.798828 -2.800587 -1.599609 z"/>
</svg>

<?xml version="1.0" encoding="UTF-8"?>
<svg width="30" height="12" version="1.1" xmlns="http://www.w3.org/2000/svg">
 <rect width="30" height="12" fill="#272727"/>
 <path d="m23 3h2v2h2v2h-2v2h-2v-2h-2v-2h2z" fill="#dfdfdf"/>
 <path d="m10.401 0c-1.3296 0-2.4004 1.0708-2.4004 2.4004v7.1992c0 1.3296 1.0708 2.4004 2.4004 2.4004h17.199c1.3296 0 2.4004-1.0708 2.4004-2.4004v-7.1992c0-1.3296-1.0708-2.4004-2.4004-2.4004h-11.599z" fill="#fff" opacity=".08"/>
</svg>
